X: 1
T: String Quartet in B\b major opus 1 no 1 mvt 2
C: Franz Joseph Haydn
%%abc-version 2.0
%%abcx-abcm2ps-target-version 5.9.1 (29 Sep 2008)
%%abc-creator hum2abc beta
%%abcx-conversion-date 2021/02/14 14:38:37
%%abc-copyright Copyright (c) 1994, 2000 Center for Computer Assisted Research in the Humanities
%%abc-edited-by Frances Bennion
%%abcx-initial-encoding-date 1997/04/15
%%gracespace 0 6 6
%%humdrum-veritas 3708955118
%%humdrum-veritas-data 230977342
%%linebreak <none>
%%barnumbers 0
L: 1/4
M: 3/4
N: Derived from op01n1-02.krn
Q: "Menuetto I"
%%staves [1 2 3 4]
V: 1
V: 2
V: 3 clef=alto
V: 4 clef=bass
K: Bb
[V:1]B2 b [I:setbarnb2] |
[V:2]D2 G |
[V:3]B, B, B, |
[V:4]B,, B,, B,, |
[V:1]b/a/ a/g/ g/f/ |
[V:2]G/F/ F/E/ E/D/ |
[V:3]B, B, B, |
[V:4]B,, B,, B,, |
[V:1]f2 ^f |
[V:2]D D D |
[V:3]B, B, B, |
[V:4]B,, B,, B,, |
[V:1]g z (3b/g/e/ |
[V:2]E E E |
[V:3]B, B, B, |
[V:4]B,, B,, B,, |
[V:1]d z (3e/c/A/ |
[V:2]F F (3G/E/C/ |
[V:3]B, B, B, |
[V:4]B,, B,, B,, |
[V:1]B z (3d/B/G/ |
[V:2]D z2 |
[V:3]B, z2 |
[V:4]B,, z2 |
[V:1]F2 E |
[V:2]D2 C |
[V:3]F, F, F, |
[V:4]F, F, F, |
[V:1]D B (3d/B/G/ |
[V:2]B, z2 |
[V:3]F, z2 |
[V:4]B,, z2 |
[V:1]F2 E |
[V:2]D2 C |
[V:3]F, F, F, |
[V:4]F,, F,, F,, |
[V:1]D z2 |
[V:2]B, z2 |
[V:3]F, z2 |
[V:4]B,, z2 |
[V:1]c2 f |
[V:2]A A A |
[V:3]F F F |
[V:4]F, F, F, |
[V:1]f/=e/ g/f/ a/g/ |
[V:2]B z2 |
[V:3]G z2 |
[V:4]G, z2 |
[V:1]c2 b |
[V:2]G G G |
[V:3]C C C |
[V:4]=E, E, E, |
[V:1]b/a/ c'/b/ d'/c'/ |
[V:2]F z2 |
[V:3]C z2 |
[V:4]F, z2 |
[V:1]c'2 f' |
[V:2]F A F |
[V:3]z3 |
[V:4]z3 |
[V:1]f'/=e'/ e'/d'/ d'/c'/ |
[V:2]c B A |
[V:3]z3 |
[V:4]z3 |
[V:1](3d'/c'/b/ a g |
[V:2]B c C |
[V:3]z3 |
[V:4]z3 |
[V:1]f2 z |
[V:2]F z2 |
[V:3]z F E |
[V:4]z F, E, |
[V:1]f f f |
[V:2]f f f |
[V:3]D z2 |
[V:4]D, z2 |
[V:1]^f/g/ =f/e/ d/c/ |
[V:2]^f/g/ =f/e/ d/c/ |
[V:3]e e e |
[V:4]E E E |
[V:1]e e e |
[V:2]e e e |
[V:3]c/B/ A/G/ F/E/ |
[V:4]C/B,/ A,/G,/ F,/E,/ |
[V:1]=e/f/ _e/d/ c/B/ |
[V:2]=e/f/ _e/d/ c/B/ |
[V:3]D z2 |
[V:4]D, z2 |
[V:1]A/c/ e d |
[V:2]A c B |
[V:3]z F F |
[V:4]z F, F, |
[V:1]c2 z |
[V:2]A2 z |
[V:3]F F/E/ D/C/ |
[V:4]F, F,/E,/ D,/C,/ |
[V:1]B2 b |
[V:2]D2 G |
[V:3]B, B, B, |
[V:4]B,, B,, B,, |
[V:1]b/a/ a/g/ g/f/ |
[V:2]G/F/ F/E/ E/D/ |
[V:3]B, B, B, |
[V:4]B,, B,, B,, |
[V:1]f2 ^f |
[V:2]D D D |
[V:3]B, B, B, |
[V:4]B,, B,, B,, |
[V:1]g z (3b/g/e/ |
[V:2]E E E |
[V:3]B, B, B, |
[V:4]B,, B,, B,, |
[V:1]d z (3e/c/A/ |
[V:2]F F (3G/E/C/ |
[V:3]B, B, B, |
[V:4]B,, B,, B,, |
[V:1]B z (3d/B/G/ |
[V:2]D z2 |
[V:3]B, z2 |
[V:4]B,, z2 |
[V:1]F2 E |
[V:2]D2 C |
[V:3]F, F, F, |
[V:4]F, F, F, |
[V:1]D B (3d/B/G/ |
[V:2]B, z2 |
[V:3]F, z2 |
[V:4]B,, z2 |
[V:1]F2 E |
[V:2]D2 C |
[V:3]F, F, F, |
[V:4]F,, F,, F,, |
[V:1]D z2 |
[V:2]B, z2 |
[V:3]B, z2 |
[V:4]B,, z2 |
[V:1]z3 |
[V:2]z3 |
[V:3]E2 F |
[V:4]E,2 D, |
[V:1]z z b |
[V:2]z2 g |
[V:3]G z2 |
[V:4]E, z2 |
[V:1]g e B |
[V:2]e B G |
[V:3]z3 |
[V:4]z3 |
[V:1]F z2 |
[V:2]B, z2 |
[V:3]F2 G |
[V:4]D,2 E, |
[V:1]z z _a |
[V:2]z2 f |
[V:3]_A z2 |
[V:4]F, z2 |
[V:1]f d _A |
[V:2]d _A F |
[V:3]z3 |
[V:4]z3 |
[V:1]G z2 |
[V:2]E z2 |
[V:3]G2 _A |
[V:4]E,2 F, |
[V:1]z z _d |
[V:2]z2 B |
[V:3]B z2 |
[V:4]G, z2 |
[V:1]c _a z |
[V:2]_A F z |
[V:3]z2 c |
[V:4]z2 _A, |
[V:1]z z B |
[V:2]z2 G |
[V:3]B G z |
[V:4]G, E, z |
[V:1]_A f z |
[V:2]F D z |
[V:3]z2 _A |
[V:4]z2 F, |
[V:1]z z B |
[V:2]z2 B |
[V:3]G E B |
[V:4]E, G, z |
[V:1]B, _A G |
[V:2]B, F E |
[V:3]B, B, B, |
[V:4]z D, E, |
[V:1]F z2 |
[V:2]D z2 |
[V:3]B, z2 |
[V:4]B, B,, z |
[V:1]z3 |
[V:2]z3 |
[V:3]B2 c |
[V:4]G,2 F, |
[V:1]z z _d |
[V:2]z2 B |
[V:3]_d z2 |
[V:4]=E, z2 |
[V:1]B G z |
[V:2]G =E z |
[V:3]z2 =E |
[V:4]z2 B,, |
[V:1]z z c |
[V:2]z2 _A |
[V:3]F _A z |
[V:4]_A,, F,, z |
[V:1]_A F z |
[V:2]F D z |
[V:3]z2 D |
[V:4]z2 _A,, |
[V:1]z z B |
[V:2]z2 G |
[V:3]E G z |
[V:4]G,, E,, z |
[V:1]c _A z |
[V:2]_A F z |
[V:3]z2 D |
[V:4]z2 B,, |
[V:1]z z f |
[V:2]z2 d |
[V:3]E C z |
[V:4]C, _A,, z |
[V:1]g e z |
[V:2]e c z |
[V:3]z2 _A |
[V:4]z2 F, |
[V:1]z z b |
[V:2]z2 g |
[V:3]B G z |
[V:4]G, E, z |
[V:1]g e B |
[V:2]e B G |
[V:3]z3 |
[V:4]z3 |
[V:1]G z2 |
[V:2]E z2 |
[V:3]z2 B |
[V:4]z2 G,, |
[V:1]z3 |
[V:2]z3 |
[V:3]C _A/F/ E/D/ |
[V:4]_A,, F,, B,, |
[V:1]z3 |]
[V:2]z3 |]
[V:3]E z2 |]
[V:4]E, E,, z |]

